X:1
T:Crossing the Bar
T:C. H. H. Parry
T:Alfred, Lord Tennyson
T:Crossing the Bar
T:"Freshwater"
C:C. H. H. Parry
Z:Alfred, Lord Tennyson
%%score [ ( 1 2 ) ( 3 4 ) ]
L:1/8
Q:1/2=92
M:4/2
K:D
V:1 treble nm="SOPRANO ALTO" snm="S."
V:2 treble 
V:3 bass nm="TENOR BASS" snm="B."
V:4 bass 
V:1
!mf! F8 D4!<(! E4 | F4 A4!<)! d6 B2 |!>(! A4 F4 E6!>)! F2 | F12 || F4 |!<(! D4 E4 F4 A4!<)! | %6
w: Sun- set and|eve- ning star, And|one clear call for|me!|And|may there be no|
 d6 d2 c4 A4 | F12 ||!>(! ^G4 | A4 E4 E4 E4!>)! | E12 ||"^crecs." A4 | A4 G4 G4 =F4 | %13
w: moan- ing of the|bar,|When|I put out to|sea,|But|such a tide as|
 _B6 B2 A4 G4 | =c12 ||!f! =c4 | _B4 A4!>(! d4 e4!>)! | A12 ||!mf! A4 | d6"^dim." A2 B4 A4 | %20
w: mov- ing seems a-|sleep,|Too|full for sound and|foam,|When|that which drew from|
 F4 D4 E6 F2 | F16 ||"^Slower." (F8 A4) G4 | E16 | D16 ||!p! F8 D4 E4 | F4 A4 d6 B2 | A4 F4 E6 F2 | %28
w: out the bound- less|deep|Turns _ a-|gain|home.|Twi- light and|eve- ning bell, And|af- ter that the|
 F12 || F4 | D4!<(! E4 F4 A4!<)! | d6 d2 c4!>(! A4 | F12 || ^G4 | A4 E8!>)! E4 | E12 ||!p! A4 | %37
w: dark!|And|may there be no|sad- ness of fare-|well,|When|I _ em-|bark,|For,|
"^poco cresc." A4 G4 G4 =F4 | _B6 B2 A4 G4 | =c12 ||!<(! =c4 | _B4 A4 d4!<)! e4 | A12 ||!mf! A4 | %44
w: tho' from out our|bourne of Time and|Place|The|flood may bear me|far,|I|
 d6 A2 B4"^dim." A4 | F4 D4 E6 F2 | F16 ||!pp!"^Slower." F8 A4 G4 | E12 E4 | D16 |] %50
w: hope to see my|Pi- lot face to|face|When I have|crost the|bar.|
V:2
 D8 B,4 C4 | D4 E4 D6 G2 | F4 D4 D4 C4 | D12 || D4 | B,4 C4 D4 E4 | F4 E4 E4 E4 | D12 || E4 | %9
 E4 E4 D4 D4 | C12 || E4 | D4 E4 E4 =F4 | =F6 F2 E4 E4 | =F12 || =F4 | =F4 A4 A4 G4 | A12 || E4 | %19
 D6 D2 G4 E4 | D4 D4 C4 C4 | C16 || D12 D4 | D4 B,8 C4 | D16 || D8 B,4 C4 | D4 E4 D6 G2 | %27
 F4 D4 D4 C4 | D12 || D4 | B,4 C4 D4 E4 | F4 E4 E4 E4 | D12 || E4 | E8 D4 D4 | C12 || E4 | %37
 D4 E4 E4 =F4 | =F6 F2 E4 E4 | =F12 || =F4 | =F4 A4 A4 G4 | A12 || E4 | D6 D2 G4 E4 | D4 D4 C4 C4 | %46
 C16 || D8 D4 D4 | D4 B,8 C4 | D16 |] %50
V:3
 A,8 B,4 G,4 | A,4 A,4 B,6 D2 | D4 A,4 ^G,4 A,4 | A,12 || A,4 | B,4 G,4 A,4 A,4 | %6
 A,4 ^G,4 A,4 A,4 | A,12 || B,4 | A,4 A,4 A,4 ^G,4 | A,12 || C4 | D4 _B,4 =C4 C4 | D6 D2 =C4 C4 | %14
 =C12 || A,4 | _B,4 =C4 D4 D4 | ^C12 || C4 | D6 D2 D4 C4 | D4 B,4 C4 B,4 | ^A,16 || %22
 ((B,8 =C4)) B,4 | (A,8 G,8) | F,16 || A,8 B,4 G,4 | A,4 A,4 B,6 D2 | D4 A,4 ^G,4 A,4 | A,12 || %29
 A,4 | B,4 G,4 A,4 A,4 | A,4 ^G,4 A,4 A,4 | A,12 || B,4 | A,12 ^G,4 | A,12 || C4 | D4 _B,4 =C4 C4 | %38
 D6 D2 =C4 C4 | =C12 || A,4 | _B,4 =C4 D4 D4 | ^C12 || C4 | D6 D2 D4 C4 | D4 B,4 C4 B,4 | ^A,16 || %47
 B,8 =C4 B,4 | A,8 G,8 | F,16 |] %50
V:4
 D,8 G,4 E,4 | D,4 C,4 B,,6 G,,2 | A,,4 A,,4 B,,4 A,,4 | D,12 || D,4 | G,4 E,4 D,4 C,4 | %6
 B,,4 B,,4 C,4 C,4 | D,12 || D,4 | C,4 C,4 B,,4 B,,4 | A,,12 || A,4 | _B,4 B,4 A,4 A,4 | %13
 G,6 G,2 =C4 _B,4 | A,12 || =F,4 | D,4 =F,4 _B,4 B,4 | A,12 || G,4 | F,6 F,2 G,4 A,4 | %20
 B,4 B,,4 A,,4 G,,4 | F,,16 || B,,8 F,,4 G,,4 | A,,16 | D,16 || D,8 G,4 E,4 | D,4 C,4 B,,6 G,,2 | %27
 A,,4 A,,4 B,,4 A,,4 | D,12 || D,4 | G,4 E,4 D,4 C,4 | B,,4 B,,4 C,4 C,4 | D,12 || D,4 | %34
 C,8 B,,4 B,,4 | A,,12 || A,4 | _B,4 B,4 A,4 A,4 | G,6 G,2 =C4 _B,4 | A,12 || =F,4 | %41
 D,4 =F,4 _B,4 B,4 | A,12 || G,4 | F,6 F,2 G,4 A,4 | B,4 B,,4 A,,4 G,,4 | F,,16 || B,,8 F,,4 G,,4 | %48
 A,,12 A,,4 | D,16 |] %50

